X: 22661
T: Lake St. John
R: reel
M: 4/4
K: Gmajor
EF|:G2GF GABc|dgge dBG2|~g3e dBGB|ABAG EDEF|
G2GF GABc|dgge dBG2|~g3e dBGB|1 AGFA GDEF:|2 AGFA GBBA||
K: Emin
|:~G2E2 EFGA|BcBA FGAG|~F2D2 DEFG|AFDF ABBA|
~G2E2 EFED|B,EED EFED|B,EED EFED|1 B,EED E2BA:|2 B,EED E2EF||

